X: 15
T:Left Handed Fiddler, The
M:4/4
L:1/8
C:J. Scott Skinner
R:Reel
K:A
d|"A"cAce a2 ed|"A"cAEA "E7"GBBd|"A"cAce "D"aefd|"E7"ecdB "A"cAAd|!
"A"cAce a2 ed|"A"cAEA "E7"GBBG|"A"AcBd "D"cedf|"E7"ecdB "A"cAA|!
|g|"A"a/a/a Aa caAa|"A"caAa "E7"BcdB|"A"a/a/a Aa caAa|"E7"BcdB "A"cAAg|!
"A"a/a/a Aa caAa|"A"caAa "E7"BcdB|"A"cAdB "D"eagf|"E7"ecdB "A"cAA||
